wp-content/plugins/wordpress-seo/packages/js/images/tec-logo.svg

<svg width="280" height="50" viewBox="0 0 280 119" fill="none" xmlns="http://www.w3.org/2000/svg">
<path fill-rule="evenodd" clip-rule="evenodd" d="M143.062 49.1982C140.605 50.1949 138.331 50.7325 136.678 50.6435C134.537 50.5242 133.623 49.5798 133.62 49.2246C133.618 48.9718 134.416 48.1796 136.881 48.0004C137.267 47.9729 137.675 47.9553 138.095 47.9553C139.779 47.9553 141.653 48.2324 143.062 49.1982M147.657 70.9116C138.649 73.3963 129.13 71.1045 123.402 65.0681C119.349 60.7968 117.99 55.4513 119.673 50.4027C123.058 40.245 139.281 34.1481 149.649 34.1481C149.761 34.1481 149.872 34.1486 149.982 34.1503C153.845 34.1998 156.521 35.1337 156.965 36.5888C157.213 37.403 156.625 38.8284 155.392 40.4006C153.217 43.175 149.911 45.6894 146.548 47.5337C144.416 45.1947 140.996 44.1304 136.623 44.4454C131.754 44.7989 130.038 47.1616 130.055 49.2549C130.075 51.5373 132.288 53.9698 136.48 54.2029C139.018 54.3414 142.051 53.5597 145.096 52.2272C145.543 53.9808 145.405 56.2814 144.673 59.0245C144.42 59.975 144.985 60.9523 145.936 61.2058C146.886 61.4592 147.863 60.8941 148.117 59.9425C149.111 56.2154 149.185 53.0892 148.342 50.6055C152.318 48.3742 155.993 45.4102 158.197 42.6005C160.265 39.9635 160.997 37.591 160.374 35.5482C159.922 34.0651 158.857 32.8887 157.252 32.0542C157.374 18.6609 159.748 9.40965 161.886 9.39701H161.899C162.213 9.39701 162.638 9.46737 163.158 9.98466C164.895 11.7108 166.964 17.3773 166.964 34.5719C166.964 51.5379 165.512 65.9828 147.657 70.9116M130.651 31.3406C130.649 31.2961 130.655 31.2521 130.649 31.2071C130.641 31.1427 130.634 31.0746 130.625 31.0086C130.369 27.3513 130.808 24.4692 131.923 22.9234C132.477 22.1559 133.172 21.7448 134.111 21.6293C135.419 21.4716 136.483 21.8091 137.377 22.6677C139.108 24.3317 140.118 27.9296 140.022 31.8656C137.054 32.5979 134.015 33.6407 131.128 34.9831C130.901 33.7055 130.744 32.4885 130.651 31.3406M146.005 25.1305C146.662 24.4164 147.499 24.069 148.567 24.069C150.265 24.069 151.002 24.6242 151.41 25.042C152.385 26.0408 152.911 27.978 152.983 30.7992C152.07 30.6727 151.085 30.5991 150.028 30.5859C149.907 30.5842 149.787 30.5837 149.666 30.5837C148.057 30.5837 146.303 30.7233 144.473 30.9894C144.394 28.4041 144.934 26.2975 146.005 25.1305M165.672 7.45649C164.602 6.39334 163.297 5.83208 161.896 5.83208H161.864C157.168 5.86011 155.548 12.8668 154.737 18.1348C154.5 19.6806 154.316 21.2583 154.173 22.7854C154.103 22.7073 154.035 22.6265 153.961 22.5518C152.636 21.1934 150.82 20.5046 148.567 20.5046C146.504 20.5046 144.71 21.2698 143.38 22.7189C143.001 23.1323 142.675 23.6111 142.38 24.1245C141.792 22.5781 140.971 21.178 139.847 20.0978C138.179 18.4943 136.046 17.8 133.676 18.0913C131.766 18.3261 130.16 19.2749 129.032 20.8372C129.028 20.8443 129.024 20.852 129.019 20.8581C127.066 11.1171 123.353 -0.645256 116.874 0.0275989C115.279 0.195263 113.871 1.05337 112.8 2.50793C107.802 9.30245 110.147 29.5068 112.32 40.3736C112.49 41.2207 113.234 41.8073 114.066 41.8073C114.182 41.8073 114.3 41.7958 114.418 41.7721C115.383 41.5792 116.009 40.6402 115.816 39.6749C112.177 21.4793 112.989 8.26733 115.672 4.6205C116.302 3.76349 116.873 3.61176 117.247 3.57273C120.823 3.20057 125.229 15.6968 127.089 31.4687C127.238 33.4219 127.534 35.2508 127.819 36.6724C127.82 36.679 127.823 36.685 127.825 36.6916C122.469 39.7788 118.049 44.0001 116.291 49.2758C114.178 55.6135 115.828 62.2645 120.816 67.522C125.687 72.6542 132.873 75.4605 140.416 75.4605C143.13 75.46 145.891 75.0966 148.606 74.3473C168.852 68.7589 170.529 52.3437 170.529 34.5719C170.529 19.3667 168.985 10.751 165.672 7.45649" fill="#0F1031"/>
<path fill-rule="evenodd" clip-rule="evenodd" d="M16.2216 96.9075H0.343574C0.153921 96.9075 0 97.0614 0 97.251V99.9749C0 100.165 0.153921 100.318 0.343574 100.318H6.40697V117.896C6.40697 118.085 6.56144 118.24 6.75054 118.24H9.84546C10.0351 118.24 10.189 118.085 10.189 117.896V100.318H16.2216C16.4113 100.318 16.5652 100.165 16.5652 99.9749V97.251C16.5652 97.0614 16.4113 96.9075 16.2216 96.9075" fill="#0F1031"/>
<path fill-rule="evenodd" clip-rule="evenodd" d="M27.2181 102.231C25.4612 102.231 23.6224 102.964 22.2685 104.197V97.2508C22.2685 97.0617 22.1145 96.9073 21.9249 96.9073H19.1395C18.9498 96.9073 18.7959 97.0617 18.7959 97.2508V117.896C18.7959 118.086 18.9498 118.24 19.1395 118.24H21.9249C22.1145 118.24 22.2685 118.086 22.2685 117.896V107.332C23.0084 106.365 24.4563 105.395 26.0417 105.395C28.0356 105.395 28.886 106.255 28.886 108.27V117.896C28.886 118.086 29.0399 118.24 29.2296 118.24H32.0155C32.2046 118.24 32.3591 118.086 32.3591 117.896V107.341C32.3591 103.999 30.5813 102.231 27.2181 102.231" fill="#0F1031"/>
<path fill-rule="evenodd" clip-rule="evenodd" d="M42.795 105.209C45.4127 105.209 46.7744 107.09 46.9772 108.978H38.599C38.8865 107.09 40.2849 105.209 42.795 105.209M42.7949 102.231C38.329 102.231 34.9614 105.746 34.9614 110.406C34.9614 115.237 38.2845 118.611 43.0428 118.611C45.5737 118.611 47.7325 117.806 49.2876 116.285C49.4091 116.166 49.4262 115.979 49.3272 115.84L48.0271 114.014C47.9678 113.93 47.8754 113.878 47.7737 113.87C47.6731 113.865 47.5714 113.902 47.5011 113.973C46.5044 114.997 44.9031 115.633 43.3215 115.633C40.3201 115.633 38.9265 113.521 38.6335 111.678H50.0688C50.2584 111.678 50.4124 111.524 50.4124 111.335V110.653C50.4124 105.694 47.2801 102.231 42.7949 102.231" fill="#0F1031"/>
<path fill-rule="evenodd" clip-rule="evenodd" d="M72.5495 96.9075H58.6828C58.4937 96.9075 58.3392 97.0614 58.3392 97.251V117.896C58.3392 118.085 58.4937 118.24 58.6828 118.24H72.5495C72.7391 118.24 72.893 118.085 72.893 117.896V115.172C72.893 114.983 72.7391 114.829 72.5495 114.829H62.1213V109.078H72.3323C72.522 109.078 72.6759 108.924 72.6759 108.735V106.011C72.6759 105.821 72.522 105.667 72.3323 105.667H62.1213V100.318H72.5495C72.7391 100.318 72.893 100.165 72.893 99.9749V97.251C72.893 97.0614 72.7391 96.9075 72.5495 96.9075" fill="#0F1031"/>
<path fill-rule="evenodd" clip-rule="evenodd" d="M89.791 102.603H86.7884C86.6472 102.603 86.5218 102.687 86.469 102.819L82.1147 113.749L77.7604 102.819C77.7082 102.687 77.5823 102.603 77.441 102.603H74.4698C74.3549 102.603 74.2488 102.66 74.1845 102.755C74.1207 102.851 74.1086 102.971 74.1526 103.077L80.3117 118.027C80.365 118.156 80.4892 118.239 80.6288 118.239H83.6314C83.771 118.239 83.8953 118.156 83.9486 118.027L90.1082 103.077C90.1522 102.971 90.1401 102.851 90.0763 102.755C90.012 102.66 89.9059 102.603 89.791 102.603" fill="#0F1031"/>
<path fill-rule="evenodd" clip-rule="evenodd" d="M98.3718 105.209C100.99 105.209 102.351 107.09 102.554 108.978H94.1758C94.4633 107.09 95.8618 105.209 98.3718 105.209M98.3718 102.231C93.9059 102.231 90.5383 105.746 90.5383 110.406C90.5383 115.237 93.8614 118.611 98.6197 118.611C101.151 118.611 103.309 117.806 104.865 116.285C104.986 116.166 105.003 115.979 104.904 115.84L103.604 114.014C103.545 113.93 103.452 113.878 103.351 113.87C103.251 113.865 103.148 113.902 103.078 113.973C102.081 114.997 100.48 115.633 98.8984 115.633C95.8964 115.633 94.5029 113.521 94.2099 111.678H105.646C105.835 111.678 105.989 111.524 105.989 111.335V110.653C105.989 105.694 102.857 102.231 98.3718 102.231" fill="#0F1031"/>
<path fill-rule="evenodd" clip-rule="evenodd" d="M116.983 102.231C114.507 102.231 112.765 103.527 112.033 104.195V102.946C112.033 102.757 111.879 102.603 111.689 102.603H108.904C108.714 102.603 108.56 102.757 108.56 102.946V117.896C108.56 118.086 108.714 118.24 108.904 118.24H111.689C111.879 118.24 112.033 118.086 112.033 117.896V107.332C112.773 106.365 114.221 105.395 115.806 105.395C117.773 105.395 118.651 106.3 118.651 108.332V117.896C118.651 118.086 118.804 118.24 118.994 118.24H121.78C121.969 118.24 122.124 118.086 122.124 117.896V107.404C122.124 104.02 120.346 102.231 116.983 102.231" fill="#0F1031"/>
<path fill-rule="evenodd" clip-rule="evenodd" d="M133.156 115.093C133.117 114.978 133.019 114.891 132.902 114.867C132.792 114.844 132.657 114.882 132.575 114.973C132.369 115.202 131.887 115.448 131.314 115.448C130.283 115.448 130.203 114.313 130.203 113.965V105.735H132.893C133.082 105.735 133.236 105.581 133.236 105.392V102.946C133.236 102.757 133.082 102.603 132.893 102.603H130.203V98.8606C130.203 98.671 130.049 98.5171 129.859 98.5171H127.074C126.884 98.5171 126.73 98.671 126.73 98.8606V102.603H124.598C124.408 102.603 124.254 102.757 124.254 102.946V105.392C124.254 105.581 124.408 105.735 124.598 105.735H126.73V114.584C126.73 117.181 128.116 118.611 130.633 118.611C132.002 118.611 133.03 118.266 133.779 117.558C133.876 117.465 133.911 117.325 133.868 117.198L133.156 115.093Z" fill="#0F1031"/>
<path fill-rule="evenodd" clip-rule="evenodd" d="M142.473 108.616C140.599 108.179 139.272 107.791 139.272 106.784C139.272 105.793 140.315 105.178 141.993 105.178C143.67 105.178 145.303 105.846 146.154 106.879C146.219 106.958 146.315 107.004 146.419 107.004C146.421 107.004 146.438 107.003 146.44 107.003C146.549 106.997 146.651 106.938 146.709 106.845L147.947 104.894C148.034 104.756 148.012 104.574 147.893 104.461C146.359 103.003 144.309 102.231 141.962 102.231C137.813 102.231 135.923 104.704 135.923 107.001C135.923 110.486 139.127 111.228 141.701 111.824C143.535 112.238 145.054 112.681 145.054 113.903C145.054 115.026 143.979 115.696 142.179 115.696C140.183 115.696 138.312 114.646 137.418 113.671C137.353 113.6 137.261 113.559 137.165 113.559C137.155 113.559 137.147 113.56 137.137 113.561C137.031 113.57 136.934 113.628 136.877 113.716L135.546 115.759C135.458 115.893 135.476 116.073 135.589 116.187C137.143 117.772 139.379 118.611 142.055 118.611C145.93 118.611 148.434 116.678 148.434 113.687C148.434 109.966 145.13 109.218 142.473 108.616" fill="#0F1031"/>
<path fill-rule="evenodd" clip-rule="evenodd" d="M167.004 100.009C169.166 100.009 171.189 101.097 172.283 102.849C172.376 102.998 172.578 103.054 172.736 102.972L175.367 101.579C175.453 101.533 175.516 101.453 175.539 101.36C175.563 101.265 175.546 101.165 175.492 101.085C173.493 98.087 170.638 96.567 167.004 96.567C160.773 96.567 156.074 101.305 156.074 107.589C156.074 113.873 160.773 118.611 167.004 118.611C170.6 118.611 173.454 117.092 175.491 114.096C175.545 114.015 175.563 113.914 175.539 113.82C175.516 113.726 175.454 113.646 175.367 113.599L172.736 112.206C172.578 112.125 172.376 112.18 172.283 112.329C171.188 114.081 169.166 115.169 167.004 115.169C163.114 115.169 160.5 112.123 160.5 107.589C160.5 102.984 163.053 100.009 167.004 100.009" fill="#0F1031"/>
<path fill-rule="evenodd" clip-rule="evenodd" d="M187.429 112.195V114.497C186.683 115.422 185.379 115.974 183.935 115.974C182.114 115.974 180.843 114.893 180.843 113.347C180.843 111.799 182.114 110.718 183.935 110.718C185.379 110.718 186.683 111.27 187.429 112.195M184.554 102.231C182.047 102.231 179.904 103.087 178.185 104.775C178.07 104.887 178.05 105.068 178.135 105.203L179.342 107.123C179.398 107.211 179.49 107.269 179.595 107.281C179.699 107.295 179.804 107.255 179.876 107.182C181.14 105.917 182.529 105.302 184.12 105.302C186.13 105.302 187.429 106.333 187.429 107.93V109.579C186.28 108.599 184.712 108.081 182.883 108.081C180.213 108.081 177.339 109.719 177.339 113.315C177.339 116.755 180.195 118.611 182.883 118.611C184.664 118.611 186.232 118.077 187.429 117.065V117.896C187.429 118.086 187.583 118.24 187.773 118.24H190.558C190.748 118.24 190.902 118.086 190.902 117.896V107.806C190.902 104.263 188.588 102.231 184.554 102.231" fill="#0F1031"/>
<path fill-rule="evenodd" clip-rule="evenodd" d="M198.111 96.9075H195.326C195.136 96.9075 194.982 97.0614 194.982 97.251V117.896C194.982 118.085 195.136 118.24 195.326 118.24H198.111C198.301 118.24 198.455 118.085 198.455 117.896V97.251C198.455 97.0614 198.301 96.9075 198.111 96.9075" fill="#0F1031"/>
<path fill-rule="evenodd" clip-rule="evenodd" d="M209.409 105.209C212.027 105.209 213.388 107.09 213.591 108.978H205.213C205.501 107.09 206.899 105.209 209.409 105.209M209.409 102.231C204.943 102.231 201.576 105.746 201.576 110.406C201.576 115.237 204.899 118.611 209.657 118.611C212.188 118.611 214.347 117.806 215.902 116.285C216.023 116.166 216.04 115.979 215.941 115.84L214.641 114.014C214.582 113.93 214.489 113.878 214.388 113.87C214.292 113.865 214.185 113.902 214.115 113.973C213.118 114.997 211.517 115.633 209.936 115.633C206.934 115.633 205.541 113.521 205.248 111.678H216.683C216.873 111.678 217.026 111.524 217.026 111.335V110.653C217.026 105.694 213.894 102.231 209.409 102.231" fill="#0F1031"/>
<path fill-rule="evenodd" clip-rule="evenodd" d="M228.019 102.231C225.543 102.231 223.802 103.527 223.07 104.195V102.946C223.07 102.757 222.916 102.603 222.726 102.603H219.941C219.751 102.603 219.597 102.757 219.597 102.946V117.896C219.597 118.086 219.751 118.24 219.941 118.24H222.726C222.916 118.24 223.07 118.086 223.07 117.896V107.332C223.81 106.365 225.258 105.395 226.843 105.395C228.81 105.395 229.687 106.3 229.687 108.332V117.896C229.687 118.086 229.841 118.24 230.031 118.24H232.817C233.006 118.24 233.16 118.086 233.16 117.896V107.404C233.16 104.02 231.383 102.231 228.019 102.231" fill="#0F1031"/>
<path fill-rule="evenodd" clip-rule="evenodd" d="M247.307 107.352V113.522C246.532 114.656 244.972 115.448 243.503 115.448C241.006 115.448 239.328 113.434 239.328 110.437C239.328 107.421 241.006 105.395 243.503 105.395C244.935 105.395 246.531 106.217 247.307 107.352M250.436 96.9075H247.651C247.461 96.9075 247.307 97.0614 247.307 97.251V104.186C246.069 102.924 244.461 102.231 242.761 102.231C238.556 102.231 235.731 105.529 235.731 110.437C235.731 115.326 238.556 118.611 242.761 118.611C244.435 118.611 246.082 117.909 247.307 116.681V117.896C247.307 118.085 247.461 118.24 247.651 118.24H250.436C250.626 118.24 250.78 118.085 250.78 117.896V97.251C250.78 97.0614 250.626 96.9075 250.436 96.9075" fill="#0F1031"/>
<path fill-rule="evenodd" clip-rule="evenodd" d="M264.084 112.195V114.497C263.338 115.422 262.034 115.974 260.589 115.974C258.769 115.974 257.498 114.893 257.498 113.347C257.498 111.799 258.769 110.718 260.589 110.718C262.034 110.718 263.338 111.27 264.084 112.195M261.209 102.231C258.702 102.231 256.559 103.087 254.839 104.775C254.725 104.887 254.704 105.068 254.79 105.203L255.997 107.123C256.053 107.211 256.144 107.269 256.249 107.281C256.353 107.295 256.458 107.255 256.53 107.182C257.795 105.917 259.183 105.302 260.775 105.302C262.785 105.302 264.084 106.333 264.084 107.93V109.579C262.935 108.599 261.366 108.081 259.537 108.081C256.867 108.081 253.994 109.719 253.994 113.315C253.994 116.755 256.85 118.611 259.537 118.611C261.318 118.611 262.887 118.077 264.084 117.065V117.896C264.084 118.086 264.238 118.24 264.428 118.24H267.213C267.403 118.24 267.557 118.086 267.557 117.896V107.806C267.557 104.263 265.243 102.231 261.209 102.231" fill="#0F1031"/>
<path fill-rule="evenodd" clip-rule="evenodd" d="M279.656 102.262C278.042 102.262 276.394 103.01 275.11 104.319V102.946C275.11 102.757 274.955 102.603 274.766 102.603H271.98C271.791 102.603 271.637 102.757 271.637 102.946V117.896C271.637 118.085 271.791 118.239 271.98 118.239H274.766C274.955 118.239 275.11 118.085 275.11 117.896V107.592C275.755 106.586 277.459 105.673 278.697 105.673C279.037 105.673 279.326 105.701 279.582 105.758C279.682 105.779 279.79 105.755 279.872 105.69C279.953 105.624 280 105.527 280 105.423V102.606C280 102.416 279.846 102.262 279.656 102.262" fill="#0F1031"/>
</svg>

<svg width="280" height="50" viewBox="0 0 280 119" fill="none" xmlns="http://www.w3.org/2000/svg" role="img" aria-hidden="true" focusable="false"><path fill-rule="evenodd" clip-rule="evenodd" d="M143.062 49.198c-2.457.997-4.731 1.535-6.384 1.446-2.141-.12-3.055-1.064-3.058-1.42-.002-.252.796-1.044 3.261-1.224.386-.027.794-.045 1.214-.045 1.684 0 3.558.277 4.967 1.243m4.595 21.714c-9.008 2.484-18.527.192-24.255-5.844-4.053-4.271-5.412-9.617-3.729-14.665 3.385-10.158 19.608-16.255 29.976-16.255.112 0 .223 0 .333.002 3.863.05 6.539.984 6.983 2.439.248.814-.34 2.24-1.573 3.812-2.175 2.774-5.481 5.288-8.844 7.133-2.132-2.34-5.552-3.404-9.925-3.089-4.869.354-6.585 2.717-6.568 4.81.02 2.282 2.233 4.715 6.425 4.948 2.538.138 5.571-.643 8.616-1.976.447 1.754.309 4.054-.423 6.798a1.783 1.783 0 0 0 3.444.918c.994-3.728 1.068-6.854.225-9.337 3.976-2.232 7.651-5.196 9.855-8.006 2.068-2.636 2.8-5.009 2.177-7.052-.452-1.483-1.517-2.66-3.122-3.494.122-13.393 2.496-22.644 4.634-22.657h.013c.314 0 .739.07 1.259.588 1.737 1.726 3.806 7.392 3.806 24.587 0 16.966-1.452 31.41-19.307 36.34M130.651 31.34c-.002-.045.004-.089-.002-.134l-.024-.198c-.256-3.658.183-6.54 1.298-8.086.554-.767 1.249-1.178 2.188-1.294 1.308-.157 2.372.18 3.266 1.039 1.731 1.664 2.741 5.262 2.645 9.198a49.245 49.245 0 0 0-8.894 3.117 38.759 38.759 0 0 1-.477-3.642m15.354-6.21c.657-.715 1.494-1.062 2.562-1.062 1.698 0 2.435.555 2.843.973.975.999 1.501 2.936 1.573 5.757a23.71 23.71 0 0 0-3.317-.215c-1.609 0-3.363.14-5.193.405-.079-2.585.461-4.692 1.532-5.858m19.667-17.675c-1.07-1.063-2.375-1.624-3.776-1.624h-.032c-4.696.028-6.316 7.035-7.127 12.303a80.347 80.347 0 0 0-.564 4.65c-.07-.078-.138-.159-.212-.233-1.325-1.359-3.141-2.047-5.394-2.047-2.063 0-3.857.765-5.187 2.214a7.868 7.868 0 0 0-1 1.405c-.588-1.546-1.409-2.946-2.533-4.026-1.668-1.604-3.801-2.298-6.171-2.007-1.91.235-3.516 1.184-4.644 2.746-.004.007-.008.015-.013.021-1.953-9.74-5.666-21.503-12.145-20.83-1.595.167-3.003 1.025-4.074 2.48-4.998 6.794-2.653 26.999-.48 37.866a1.784 1.784 0 0 0 2.098 1.398 1.782 1.782 0 0 0 1.398-2.097c-3.639-18.196-2.827-31.408-.144-35.054.63-.858 1.201-1.01 1.575-1.048 3.576-.372 7.982 12.124 9.842 27.896.149 1.953.445 3.782.73 5.203.001.007.004.013.006.02-5.356 3.087-9.776 7.308-11.534 12.584-2.113 6.337-.463 12.988 4.525 18.246 4.871 5.132 12.057 7.938 19.6 7.938 2.714 0 5.475-.363 8.19-1.113 20.246-5.588 21.923-22.003 21.923-39.775 0-15.205-1.544-23.821-4.857-27.116M16.222 96.907H.344a.344.344 0 0 0-.344.344v2.724c0 .19.154.343.344.343h6.063v17.578c0 .189.154.344.344.344h3.094c.19 0 .344-.155.344-.344v-17.578h6.033c.19 0 .343-.153.343-.343V97.25a.344.344 0 0 0-.343-.344m10.996 5.325c-1.757 0-3.596.733-4.95 1.966v-6.946a.344.344 0 0 0-.343-.344H19.14a.344.344 0 0 0-.344.344v20.645c0 .19.154.344.344.344h2.785c.19 0 .343-.154.343-.344v-10.564c.74-.967 2.188-1.937 3.774-1.937 1.994 0 2.844.86 2.844 2.875v9.626c0 .19.154.344.344.344h2.786a.344.344 0 0 0 .343-.344v-10.555c0-3.342-1.778-5.11-5.14-5.11m15.576 2.978c2.618 0 3.98 1.881 4.182 3.769H38.6c.288-1.888 1.686-3.769 4.196-3.769m0-2.978c-4.466 0-7.834 3.515-7.834 8.175 0 4.831 3.324 8.205 8.082 8.205 2.53 0 4.69-.805 6.245-2.326a.342.342 0 0 0 .04-.445l-1.3-1.826a.342.342 0 0 0-.527-.041c-.997 1.024-2.598 1.66-4.18 1.66-3 0-4.395-2.112-4.688-3.955H50.07c.19 0 .343-.154.343-.343v-.682c0-4.959-3.132-8.422-7.617-8.422m29.754-5.324H58.682a.344.344 0 0 0-.344.344v20.645c0 .189.155.344.344.344h13.866c.19 0 .344-.155.344-.344v-2.724a.344.344 0 0 0-.344-.343H62.121v-5.751h10.211c.19 0 .344-.154.344-.343v-2.724a.344.344 0 0 0-.344-.344h-10.21v-5.349h10.427c.19 0 .344-.153.344-.343V97.25a.344.344 0 0 0-.344-.344m17.242 5.697h-3.003a.342.342 0 0 0-.319.216l-4.354 10.93-4.355-10.93a.341.341 0 0 0-.319-.216H74.47a.344.344 0 0 0-.317.474l6.159 14.95a.342.342 0 0 0 .317.212h3.002c.14 0 .264-.083.318-.212l6.16-14.95a.343.343 0 0 0-.318-.474m8.581 2.606c2.618 0 3.979 1.881 4.182 3.769h-8.378c.287-1.888 1.686-3.769 4.196-3.769m0-2.978c-4.466 0-7.834 3.515-7.834 8.175 0 4.831 3.323 8.205 8.082 8.205 2.531 0 4.689-.805 6.245-2.326a.343.343 0 0 0 .039-.445l-1.3-1.826a.342.342 0 0 0-.526-.041c-.997 1.024-2.598 1.66-4.18 1.66-3.002 0-4.395-2.112-4.688-3.955h11.436a.344.344 0 0 0 .343-.343v-.682c0-4.959-3.132-8.422-7.617-8.422m18.611 0c-2.476 0-4.218 1.296-4.95 1.964v-1.249a.344.344 0 0 0-.344-.343h-2.785a.344.344 0 0 0-.344.343v14.95c0 .19.154.344.344.344h2.785c.19 0 .344-.154.344-.344v-10.564c.74-.967 2.188-1.937 3.773-1.937 1.967 0 2.845.905 2.845 2.937v9.564c0 .19.153.344.343.344h2.786a.345.345 0 0 0 .344-.344v-10.492c0-3.384-1.778-5.173-5.141-5.173m16.173 12.862a.344.344 0 0 0-.254-.226.358.358 0 0 0-.327.106c-.206.229-.688.475-1.261.475-1.031 0-1.111-1.135-1.111-1.483v-8.23h2.69a.344.344 0 0 0 .343-.343v-2.446a.344.344 0 0 0-.343-.343h-2.69v-3.742a.344.344 0 0 0-.344-.344h-2.785a.344.344 0 0 0-.344.344v3.742h-2.132a.344.344 0 0 0-.344.343v2.446c0 .189.154.343.344.343h2.132v8.849c0 2.597 1.386 4.027 3.903 4.027 1.369 0 2.397-.345 3.146-1.053a.345.345 0 0 0 .089-.36l-.712-2.105zm9.317-6.477c-1.874-.437-3.201-.825-3.201-1.832 0-.991 1.043-1.606 2.721-1.606 1.677 0 3.31.668 4.161 1.701a.341.341 0 0 0 .265.125l.021-.001a.34.34 0 0 0 .269-.158l1.238-1.951a.345.345 0 0 0-.054-.433c-1.534-1.458-3.584-2.23-5.931-2.23-4.149 0-6.039 2.473-6.039 4.77 0 3.485 3.204 4.227 5.778 4.823 1.834.414 3.353.857 3.353 2.079 0 1.123-1.075 1.793-2.875 1.793-1.996 0-3.867-1.05-4.761-2.025a.344.344 0 0 0-.253-.112l-.028.002a.346.346 0 0 0-.26.155l-1.331 2.043a.343.343 0 0 0 .043.428c1.554 1.585 3.79 2.424 6.466 2.424 3.875 0 6.379-1.933 6.379-4.924 0-3.721-3.304-4.469-5.961-5.071m24.531-8.607c2.162 0 4.185 1.088 5.279 2.84a.351.351 0 0 0 .453.123l2.631-1.393a.344.344 0 0 0 .125-.494c-1.999-2.998-4.854-4.518-8.488-4.518-6.231 0-10.93 4.738-10.93 11.022s4.699 11.022 10.93 11.022c3.596 0 6.45-1.519 8.487-4.515a.346.346 0 0 0-.124-.497l-2.631-1.393a.352.352 0 0 0-.453.123c-1.095 1.752-3.117 2.84-5.279 2.84-3.89 0-6.504-3.046-6.504-7.58 0-4.605 2.553-7.58 6.504-7.58m20.425 12.186v2.302c-.746.925-2.05 1.477-3.494 1.477-1.821 0-3.092-1.081-3.092-2.627 0-1.548 1.271-2.629 3.092-2.629 1.444 0 2.748.552 3.494 1.477m-2.875-9.964c-2.507 0-4.65.856-6.369 2.544a.345.345 0 0 0-.05.428l1.207 1.92a.345.345 0 0 0 .534.059c1.264-1.265 2.653-1.88 4.244-1.88 2.01 0 3.309 1.031 3.309 2.628v1.649c-1.149-.98-2.717-1.498-4.546-1.498-2.67 0-5.544 1.638-5.544 5.234 0 3.44 2.856 5.296 5.544 5.296 1.781 0 3.349-.534 4.546-1.546v.831c0 .19.154.344.344.344h2.785c.19 0 .344-.154.344-.344v-10.09c0-3.543-2.314-5.575-6.348-5.575m13.557-5.324h-2.785a.344.344 0 0 0-.344.344v20.645c0 .189.154.344.344.344h2.785c.19 0 .344-.155.344-.344V97.251a.344.344 0 0 0-.344-.344m11.298 8.302c2.618 0 3.979 1.881 4.182 3.769h-8.378c.288-1.888 1.686-3.769 4.196-3.769m0-2.978c-4.466 0-7.833 3.515-7.833 8.175 0 4.831 3.323 8.205 8.081 8.205 2.531 0 4.69-.805 6.245-2.326a.343.343 0 0 0 .039-.445l-1.3-1.826a.342.342 0 0 0-.253-.144.369.369 0 0 0-.273.103c-.997 1.024-2.598 1.66-4.179 1.66-3.002 0-4.395-2.112-4.688-3.955h11.435c.19 0 .343-.154.343-.343v-.682c0-4.959-3.132-8.422-7.617-8.422m18.61 0c-2.476 0-4.217 1.296-4.949 1.964v-1.249a.344.344 0 0 0-.344-.343h-2.785a.344.344 0 0 0-.344.343v14.95c0 .19.154.344.344.344h2.785c.19 0 .344-.154.344-.344v-10.564c.74-.967 2.188-1.937 3.773-1.937 1.967 0 2.844.905 2.844 2.937v9.564c0 .19.154.344.344.344h2.786a.344.344 0 0 0 .343-.344v-10.492c0-3.384-1.777-5.173-5.141-5.173m19.288 5.121v6.17c-.775 1.134-2.335 1.926-3.804 1.926-2.497 0-4.175-2.014-4.175-5.011 0-3.016 1.678-5.042 4.175-5.042 1.432 0 3.028.822 3.804 1.957m3.129-10.445h-2.785a.344.344 0 0 0-.344.344v6.935c-1.238-1.262-2.846-1.955-4.546-1.955-4.205 0-7.03 3.298-7.03 8.206 0 4.889 2.825 8.174 7.03 8.174 1.674 0 3.321-.702 4.546-1.93v1.215c0 .189.154.344.344.344h2.785c.19 0 .344-.155.344-.344V97.251a.344.344 0 0 0-.344-.344m13.648 15.288v2.302c-.746.925-2.05 1.477-3.495 1.477-1.82 0-3.091-1.081-3.091-2.627 0-1.548 1.271-2.629 3.091-2.629 1.445 0 2.749.552 3.495 1.477m-2.875-9.964c-2.507 0-4.65.856-6.37 2.544a.345.345 0 0 0-.049.428l1.207 1.92a.343.343 0 0 0 .533.059c1.265-1.265 2.653-1.88 4.245-1.88 2.01 0 3.309 1.031 3.309 2.628v1.649c-1.149-.98-2.718-1.498-4.547-1.498-2.67 0-5.543 1.638-5.543 5.234 0 3.44 2.856 5.296 5.543 5.296 1.781 0 3.35-.534 4.547-1.546v.831c0 .19.154.344.344.344h2.785c.19 0 .344-.154.344-.344v-10.09c0-3.543-2.314-5.575-6.348-5.575m18.447.031c-1.614 0-3.262.748-4.546 2.057v-1.373a.344.344 0 0 0-.344-.343h-2.786a.344.344 0 0 0-.343.343v14.95c0 .189.154.343.343.343h2.786a.344.344 0 0 0 .344-.343v-10.304c.645-1.006 2.349-1.919 3.587-1.919.34 0 .629.028.885.085a.343.343 0 0 0 .418-.335v-2.817a.344.344 0 0 0-.344-.344" fill="#0F1031"/></svg>
